X: 24669
T: MacKenzie's
R: reel
M: 4/4
K: Amixolydian
|:AAAB c2 cB|c2 cB ce f2|AAAB c2 af|ecBc AAAa:|
eAec eAAa|eAec BBBf|eAec eAaf|ecBc AAAf|
eAec eAAa|eAec BBBa|AAAB c2 af|ecBc AAAf|

